X: 6
T: The Rose In The Heather
R: jig
M: 6/8
L: 1/8
K: Dmaj
E|:~F3 EFE | DFA BAF | A (3Bcd ede | fdB AFE |
FAF EFE | DFA BAF | AdB AFE |[1 FDC D AG :|[2 FDC D de||
fdB A (3Bcd | ~f2a afd | ~g2g fed |B2 e efg |
fdB A (3Bcd | faa afa | bag fge|[1 fdc d2 e :|[2 fdc dAG|]


Tune 447	Setting 13313

